X: 96
T: The Merry Blacksmith
B: begged borrowed and stolen
B: ralph
B: steve tunes
M:4/4
L:1/8
R: reel
Q: 1/4=140
K:D
V:1 
AB |: "D" d2 dA    "A" BAFA | "D" ABdA  "A" BAFA | "D" ABde   f2  ed | "G" Beed "A" egfe | 
     "D" dcdA     "A" BAFA | "D" ABdA  "A" BAFA | "D" ABde "G" fdec |1 "A" dBAF  "D" D2AB  :|2 "A" dBAF  "D" D2  fg ||
 |: "D" a2 ag "A" f2 fe | "D" d2 dA "A" BAFA | "D" ABde   f2  ed | "G" Beed "A" egfe |
     "D" abag   "A" fgfe | "D" dcdA  "A" BAFA | "D" ABde "G" fdec |1 "A" dBAF  "D" D2 fg :|2 "A" dBAF  "D" D4 ||
% abcbook-tune_id 627e2b1ffa25bed2f04f8ec3


% abcbook-boost 0
% abcbook-tablature 
% abcbook-transpose 
% abcbook-lastupdated 1652725431140
% abcbook-soundfonts 
% abcbook-repeats 3
% Rhythm Reel
% Titles One title
% Transcriptions Only 1 transcription
% Movement Has lots of stepwise movement
% Movement Has some stepwise movement
% Mode major
% Key D
% Time_signature 4/4
% Has_accompaniment_chords Has chords

